icons/bell.svg

<svg width="24" height="24" viewBox="0 0 24 24" fill="none" xmlns="http://www.w3.org/2000/svg">
<path fill-rule="evenodd" clip-rule="evenodd" d="M12 4C8.68629 4 6 6.68629 6 10V17H18V10C18 6.68629 15.3137 4 12 4ZM20 17V10C20 5.58172 16.4183 2 12 2C7.58172 2 4 5.58172 4 10V17H3C2.44772 17 2 17.4477 2 18C2 18.5523 2.44772 19 3 19H21C21.5523 19 22 18.5523 22 18C22 17.4477 21.5523 17 21 17H20ZM9 22C9 21.4477 9.44772 21 10 21H14C14.5523 21 15 21.4477 15 22C15 22.5523 14.5523 23 14 23H10C9.44772 23 9 22.5523 9 22Z" fill="black"/>
</svg>

<svg
  width="24"
  height="24"
  viewBox="0 0 24 24"
  xmlns="http://www.w3.org/2000/svg"
>
  <path
    fill-rule="evenodd"
    clip-rule="evenodd"
    d="M12 4a6 6 0 0 0-6 6v7h12v-7a6 6 0 0 0-6-6zm8 13v-7a8 8 0 1 0-16 0v7H3a1 1 0 1 0 0 2h18a1 1 0 1 0 0-2h-1zM9 22a1 1 0 0 1 1-1h4a1 1 0 1 1 0 2h-4a1 1 0 0 1-1-1z"
  />
</svg>
